X: 5
T: Junior Crehan's
R: jig
M: 6/8
L: 1/8
K: Dmaj
ABc ||: dAF AFE | DFD EDB, | A,B,D EDE | FEE E2A |
dAF AFE | D/E/FD EDB, | A,B,D EFG |1 FDC D2A :|2 FDC D2 |]
A, [|: DFA ~d3 | ede fdB | def edB | ABd egf |
edB AFE | D/E/FD EDB, | A,B,D ~E3 |1 FDC D2A, :|2 FDC D3|]


Tune 1880	Setting 22533

